; HEADER_BLOCK_START
; generated by OrcaSlicer 2.3.2 on 2026-05-14 at 17:08:22
; total layer number: 44
; filament_density: 1.27
; filament_diameter: 1.75
; max_z_height: 4.50
; filament: 1
; HEADER_BLOCK_END

; THUMBNAIL_BLOCK_START

;
; THUMBNAIL_BLOCK_END

; THUMBNAIL_BLOCK_START

;
; THUMBNAIL_BLOCK_END

; THUMBNAIL_BLOCK_START

;
; THUMBNAIL_BLOCK_END

; external perimeters extrusion width = 0.42mm
; perimeters extrusion width = 0.45mm
; infill extrusion width = 0.50mm
; solid infill extrusion width = 0.50mm
; top infill extrusion width = 0.45mm
; first layer extrusion width = 0.50mm

; EXECUTABLE_BLOCK_START
EXCLUDE_OBJECT_DEFINE NAME=hinge3.stl_id_0_copy_0 CENTER=175,175 POLYGON=[[156.8,160.5],[193.2,160.5],[193.2,189.5],[156.8,189.5],[156.8,160.5]]
M73 P0 R12
;TYPE:Custom
G28
G90
G1 X0 F9000
G1 Y20
G1 Z0.600 F600
G1 Y0 F9000
START_PRINT
G90
G1 X0 F9000
G1 Y20
G1 Z0.600 F600
G1 Y0 F9000
M400
G91
M83
M140 S80 ;set bed temp
M104 S255 ;set extruder temp
M190 S80 ;wait for bed temp
M109 S255;wait for extruder temp
G1 E25 F300
G4 P1000
G1 E-0.200 Z5 F600
G1 X88.000 F9000
M73 P1 R12
G1 Z-5.000 F600
G1 X87.000 E20.88 F1800
G1 X87.000 E13.92 F1800
G1 Y1 E0.16 F1800
G1 X-87.000 E13.92 F1800
G1 X-87.000 E20.88 F1800
M73 P2 R12
G1 Y1 E0.24 F1800
G1 X87.000 E20.88 F1800
G1 X87.000 E13.92 F1800
M73 P3 R12
G1 E-0.200 Z1 F600
M400
G90
G21
M83 ; use relative distances for extrusion
; Filament gcode
M106 S0
;LAYER_CHANGE
;Z:0.2
;HEIGHT:0.2
TIMELAPSE_TAKE_FRAME
G92 E0
G1 E-.5 F1800
;_SET_FAN_SPEED_CHANGING_LAYER
SET_VELOCITY_LIMIT ACCEL=3000 ACCEL_TO_DECEL=1500
G1 Z.6 F36000
G1 X156.37 Y157.919
G1 Z.6
G1 Z.2
G1 E.5 F1800
;TYPE:Skirt
;WIDTH:0.5
G1 F3000
G1 X156.8 Y157.814 E.01647
G1 X193.2 Y157.814 E1.35576
G1 X194.598 Y158.207 E.05408
M73 P3 R11
G1 X195.587 Y159.27 E.05408
G1 X195.886 Y160.5 E.04715
G1 X195.886 Y189.5 E1.08014
G1 X195.493 Y190.898 E.05408
G1 X194.43 Y191.887 E.05408
G1 X193.2 Y192.186 E.04715
G1 X156.8 Y192.186 E1.35576
G1 X155.402 Y191.793 E.05408
G1 X154.413 Y190.73 E.05408
G1 X154.114 Y189.5 E.04715
G1 X154.114 Y160.5 E1.08014
G1 X154.507 Y159.102 E.05408
G1 X155.57 Y158.113 E.05408
G1 X156.351 Y157.923 E.02993
M73 P4 R11
G1 X156.429 Y158.341 F36000
G1 F3000
G1 X156.8 Y158.271 E.01407
G1 X193.2 Y158.271 E1.35576
G1 X194.461 Y158.662 E.04917
G1 X195.279 Y159.698 E.04917
G1 X195.429 Y160.5 E.03037
G1 X195.429 Y189.5 E1.08014
G1 X195.038 Y190.761 E.04917
G1 X194.002 Y191.579 E.04917
G1 X193.2 Y191.729 E.03037
G1 X156.8 Y191.729 E1.35576
G1 X155.539 Y191.338 E.04917
G1 X154.721 Y190.302 E.04917
G1 X154.571 Y189.5 E.03037
G1 X154.571 Y160.5 E1.08014
G1 X154.962 Y159.239 E.04917
G1 X155.998 Y158.421 E.04917
G1 X156.409 Y158.344 E.01555
; printing object hinge3.stl id:0 copy 0
;WIPE_START
G1 X156.8 Y158.271 E-.09946
G1 X158.402 Y158.271 E-.40054
;WIPE_END
EXCLUDE_OBJECT_START NAME=hinge3.stl_id_0_copy_0
G1 Z.6 F36000
G1 X165.13 Y167.38 Z.6
G1 Z.2
G1 E.5 F1800
;TYPE:Outer wall
G1 X165.13 Y171.522 E.15428
G1 X157.15 Y171.522 E.29722
G1 X157.15 Y160.85 E.3975
G1 X192.85 Y160.85 E1.32969
G1 X192.85 Y167.38 E.24322
G1 X183.33 Y167.38 E.35458
G1 X183.33 Y171.522 E.15428
G1 X175.35 Y171.522 E.29722
G1 X175.35 Y167.38 E.15428
G1 X165.15 Y167.38 E.37991
G1 X164.673 Y166.923 F36000
;TYPE:Inner wall
G1 F1800
G1 X164.673 Y171.065 E.15428
G1 X157.607 Y171.065 E.26318
G1 X157.607 Y161.307 E.36345
G1 X192.393 Y161.307 E1.29564
G1 X192.393 Y166.923 E.20917
M73 P5 R11
G1 X182.873 Y166.923 E.35458
G1 X182.873 Y171.065 E.15428
G1 X175.807 Y171.065 E.26318
G1 X175.807 Y166.923 E.15428
G1 X164.693 Y166.923 E.41396
G1 X164.216 Y166.466 F36000
G1 F1800
G1 X164.216 Y170.608 E.15428
G1 X158.064 Y170.608 E.22913
G1 X158.064 Y161.764 E.3294
G1 X191.936 Y161.764 E1.26159
G1 X191.936 Y166.466 E.17512
G1 X182.416 Y166.466 E.35458
G1 X182.416 Y170.608 E.15428
G1 X176.264 Y170.608 E.22913
G1 X176.264 Y166.466 E.15428
G1 X164.236 Y166.466 E.44801
G1 X163.759 Y166.009 F36000
G1 F1800
G1 X163.759 Y170.151 E.15428
G1 X158.521 Y170.151 E.19508
G1 X158.521 Y162.221 E.29535
G1 X191.479 Y162.221 E1.22754
G1 X191.479 Y166.009 E.14107
G1 X181.959 Y166.009 E.35458
G1 X181.959 Y170.151 E.15428
M73 P6 R11
G1 X176.721 Y170.151 E.19508
G1 X176.721 Y166.009 E.15428
G1 X163.779 Y166.009 E.48206
;WIPE_START
G1 X163.769 Y168.009 E-.5
;WIPE_END
G1 Z.6 F36000
G1 X190.409 Y162.358 Z.6
G1 Z.2
G1 E.5 F1800
;TYPE:Bottom surface
;WIDTH:0.504025
G1 F5400
G1 X191.342 Y163.291 E.04955
G1 X191.342 Y163.943 F36000
G1 F5400
G1 X189.757 Y162.358 E.0842
G1 X189.105 Y162.358 F36000
G1 F5400
G1 X191.342 Y164.595 E.11885
G1 X191.342 Y165.247 F36000
G1 F5400
G1 X188.453 Y162.358 E.15351
G1 X187.801 Y162.358 F36000
G1 F5400
G1 X191.314 Y165.872 E.18669
G1 X190.662 Y165.872 F36000
G1 F5400
G1 X187.149 Y162.358 E.18669
G1 X186.497 Y162.358 F36000
G1 F5400
G1 X190.01 Y165.872 E.18669
G1 X189.358 Y165.872 F36000
G1 F5400
G1 X185.844 Y162.358 E.18669
G1 X185.192 Y162.358 F36000
G1 F5400
G1 X188.706 Y165.872 E.18669
G1 X188.054 Y165.872 F36000
G1 F5400
G1 X184.54 Y162.358 E.18669
G1 X183.888 Y162.358 F36000
G1 F5400
G1 X187.401 Y165.872 E.18669
G1 X186.749 Y165.872 F36000
G1 F5400
G1 X183.236 Y162.358 E.18669
G1 X182.584 Y162.358 F36000
G1 F5400
G1 X186.097 Y165.872 E.18669
G1 X185.445 Y165.872 F36000
G1 F5400
G1 X181.932 Y162.358 E.18669
G1 X181.28 Y162.358 F36000
G1 F5400
G1 X184.793 Y165.872 E.18669
G1 X184.141 Y165.872 F36000
G1 F5400
G1 X180.628 Y162.358 E.18669
G1 X179.976 Y162.358 F36000
G1 F5400
G1 X183.489 Y165.872 E.18669
G1 X182.837 Y165.872 F36000
G1 F5400
G1 X179.323 Y162.358 E.18669
G1 X178.671 Y162.358 F36000
G1 F5400
G1 X182.185 Y165.872 E.18669
G1 X181.822 Y166.161 F36000
G1 F5400
G1 X178.019 Y162.358 E.20205
G1 X177.367 Y162.358 F36000
G1 F5400
G1 X181.822 Y166.813 E.2367
G1 X181.822 Y167.465 F36000
G1 F5400
G1 X176.715 Y162.358 E.27136
G1 X176.063 Y162.358 F36000
G1 F5400
G1 X181.822 Y168.117 E.30601
G1 X181.822 Y168.769 F36000
G1 F5400
G1 X175.411 Y162.358 E.34066
G1 X174.759 Y162.358 F36000
G1 F5400
G1 X181.822 Y169.421 E.37531
G1 X181.762 Y170.014 F36000
G1 F5400
G1 X174.107 Y162.358 E.4068
G1 X173.455 Y162.358 F36000
G1 F5400
G1 X181.11 Y170.014 E.4068
G1 X180.458 Y170.014 F36000
G1 F5400
G1 X176.858 Y166.414 E.19128
G1 X176.858 Y167.066 F36000
G1 F5400
G1 X179.806 Y170.014 E.15663
G1 X179.154 Y170.014 F36000
G1 F5400
G1 X176.858 Y167.718 E.12197
G1 X176.858 Y168.371 F36000
G1 F5400
G1 X178.502 Y170.014 E.08732
G1 X177.85 Y170.014 F36000
G1 F5400
G1 X176.858 Y169.023 E.05267
G1 E-.03273 F1800
;WIPE_START
G1 F5400
G1 X177.85 Y170.014 E-.46727
;WIPE_END
G1 Z.6 F36000
G1 X176.316 Y165.872 Z.6
G1 Z.2
G1 E.5 F1800
G1 F5400
G1 X172.802 Y162.358 E.18669
G1 X172.15 Y162.358 F36000
G1 F5400
G1 X175.664 Y165.872 E.18669
G1 X175.012 Y165.872 F36000
G1 F5400
G1 X171.498 Y162.358 E.18669
G1 X170.846 Y162.358 F36000
G1 F5400
G1 X174.359 Y165.872 E.18669
G1 X173.707 Y165.872 F36000
G1 F5400
G1 X170.194 Y162.358 E.18669
G1 X169.542 Y162.358 F36000
G1 F5400
G1 X173.055 Y165.872 E.18669
G1 X172.403 Y165.872 F36000
G1 F5400
G1 X168.89 Y162.358 E.18669
G1 X168.238 Y162.358 F36000
G1 F5400
G1 X171.751 Y165.872 E.18669
G1 X171.099 Y165.872 F36000
G1 F5400
G1 X167.586 Y162.358 E.18669
G1 X166.934 Y162.358 F36000
G1 F5400
G1 X170.447 Y165.872 E.18669
G1 X169.795 Y165.872 F36000
G1 F5400
G1 X166.281 Y162.358 E.18669
G1 X165.629 Y162.358 F36000
G1 F5400
G1 X169.143 Y165.872 E.18669
G1 X168.491 Y165.872 F36000
G1 F5400
G1 X164.977 Y162.358 E.18669
G1 X164.325 Y162.358 F36000
G1 F5400
G1 X167.838 Y165.872 E.18669
G1 X167.186 Y165.872 F36000
G1 F5400
G1 X163.673 Y162.358 E.18669
G1 X163.021 Y162.358 F36000
G1 F5400
G1 X166.534 Y165.872 E.18669
G1 X165.882 Y165.872 F36000
G1 F5400
G1 X162.369 Y162.358 E.18669
G1 X161.717 Y162.358 F36000
G1 F5400
G1 X165.23 Y165.872 E.18669
G1 X164.578 Y165.872 F36000
G1 F5400
G1 X161.065 Y162.358 E.18669
G1 X160.412 Y162.358 F36000
G1 F5400
G1 X163.926 Y165.872 E.18669
G1 X163.622 Y166.22 F36000
G1 F5400
G1 X159.76 Y162.358 E.20518
G1 X159.108 Y162.358 F36000
G1 F5400
G1 X163.622 Y166.872 E.23983
G1 X163.622 Y167.524 F36000
G1 F5400
G1 X158.658 Y162.561 E.26374
G1 X158.658 Y163.213 F36000
G1 F5400
G1 X163.622 Y168.176 E.26374
G1 X163.622 Y168.828 F36000
G1 F5400
G1 X158.658 Y163.865 E.26374
G1 X158.658 Y164.517 F36000
G1 F5400
G1 X163.622 Y169.48 E.26374
G1 X163.503 Y170.014 F36000
G1 F5400
G1 X158.658 Y165.169 E.25745
G1 X158.658 Y165.821 F36000
G1 F5400
G1 X162.851 Y170.014 E.2228
G1 X162.199 Y170.014 F36000
G1 F5400
G1 X158.658 Y166.473 E.18815
G1 X158.658 Y167.125 F36000
M73 P7 R11
G1 F5400
G1 X161.547 Y170.014 E.1535
G1 X160.895 Y170.014 F36000
G1 F5400
G1 X158.658 Y167.777 E.11885
G1 X158.658 Y168.429 F36000
G1 F5400
G1 X160.243 Y170.014 E.0842
G1 X159.591 Y170.014 F36000
G1 F5400
G1 X158.658 Y169.082 E.04955
G1 E-.06047 F1800
;WIPE_START
G1 F5400
G1 X159.591 Y170.014 E-.43953
;WIPE_END
G1 Z.6 F36000
G1 X174.23 Y180.522 Z.6
G1 Z.2
G1 E.5 F1800
;TYPE:Outer wall
;WIDTH:0.5
G1 X166.25 Y180.522 E.29722
G1 X166.25 Y176.311 E.15684
G1 X157.15 Y176.311 E.33894
G1 X157.15 Y173.689 E.09768
G1 X166.25 Y173.689 E.33894
G1 X166.25 Y169.478 E.15684
G1 X174.23 Y169.478 E.29722
G1 X174.23 Y173.689 E.15684
G1 X184.45 Y173.689 E.38066
G1 X184.45 Y169.478 E.15684
G1 X192.85 Y169.478 E.31287
G1 X192.85 Y180.522 E.41137
G1 X184.45 Y180.522 E.31287
G1 X184.45 Y176.311 E.15684
G1 X174.23 Y176.311 E.38066
G1 X174.23 Y180.502 E.1561
G1 X173.773 Y180.065 F36000
;TYPE:Inner wall
G1 F1800
G1 X166.707 Y180.065 E.26318
G1 X166.707 Y175.854 E.15684
G1 X157.607 Y175.854 E.33894
G1 X157.607 Y174.146 E.06363
G1 X166.707 Y174.146 E.33894
G1 X166.707 Y169.935 E.15684
G1 X173.773 Y169.935 E.26318
G1 X173.773 Y174.146 E.15684
G1 X184.907 Y174.146 E.41471
G1 X184.907 Y169.935 E.15684
G1 X192.393 Y169.935 E.27882
G1 X192.393 Y180.065 E.37732
G1 X184.907 Y180.065 E.27882
G1 X184.907 Y175.854 E.15684
G1 X173.773 Y175.854 E.41471
G1 X173.773 Y180.045 E.1561
M73 P8 R11
G1 X173.316 Y179.608 F36000
G1 F1800
G1 X167.164 Y179.608 E.22913
G1 X167.164 Y175.397 E.15684
G1 X158.064 Y175.397 E.33894
G1 X158.064 Y174.603 E.02959
G1 X167.164 Y174.603 E.33894
G1 X167.164 Y170.392 E.15684
G1 X173.316 Y170.392 E.22913
G1 X173.316 Y174.603 E.15684
G1 X185.364 Y174.603 E.44875
G1 X185.364 Y170.392 E.15684
G1 X191.936 Y170.392 E.24477
G1 X191.936 Y179.608 E.34327
G1 X185.364 Y179.608 E.24477
G1 X185.364 Y175.397 E.15684
G1 X173.316 Y175.397 E.44875
G1 X173.316 Y179.588 E.1561
;WIPE_START
G1 X171.316 Y179.595 E-.5
;WIPE_END
G1 Z.6 F36000
G1 X185.821 Y179.151 Z.6
G1 Z.2
G1 E.5 F1800
G1 X185.821 Y170.849 E.30922
G1 X191.479 Y170.849 E.21072
G1 X191.479 Y179.151 E.30922
G1 X185.841 Y179.151 E.20998
;WIPE_START
G1 X185.836 Y177.151 E-.5
;WIPE_END
G1 Z.6 F36000
G1 X172.859 Y179.151 Z.6
G1 Z.2
G1 E.5 F1800
G1 X167.621 Y179.151 E.19508
G1 X167.621 Y170.849 E.30922
G1 X172.859 Y170.849 E.19508
G1 X172.859 Y179.131 E.30848
;WIPE_START
G1 X170.859 Y179.139 E-.5
;WIPE_END
G1 Z.6 F36000
G1 X173.087 Y175 Z.6
G1 Z.2
G1 E.5 F1800
;TYPE:Gap infill
;WIDTH:0.380158
G1 X185.593 Y175 E.34366
;WIPE_START
G1 X183.593 Y175 E-.5
;WIPE_END
G1 Z.6 F36000
G1 X191.342 Y171.953 Z.6
G1 Z.2
G1 E.5 F1800
;TYPE:Bottom surface
;WIDTH:0.520307
G1 F5400
G1 X190.375 Y170.986 E.0532
G1 X189.699 Y170.986 F36000
G1 F5400
G1 X191.342 Y172.628 E.09034
G1 X191.342 Y173.303 F36000
G1 F5400
G1 X189.024 Y170.986 E.12749
G1 X188.349 Y170.986 F36000
M73 P9 R11
G1 F5400
G1 X191.342 Y173.979 E.16463
G1 X191.342 Y174.654 F36000
G1 F5400
G1 X187.674 Y170.986 E.20177
G1 X186.999 Y170.986 F36000
G1 F5400
G1 X191.342 Y175.329 E.23891
G1 X191.342 Y176.004 F36000
G1 F5400
G1 X186.324 Y170.986 E.27605
G1 X185.958 Y171.296 F36000
G1 F5400
G1 X191.342 Y176.679 E.29616
G1 X191.342 Y177.354 F36000
G1 F5400
G1 X185.958 Y171.971 E.29616
G1 X185.958 Y172.646 F36000
G1 F5400
G1 X191.342 Y178.029 E.29616
G1 X191.342 Y178.704 F36000
G1 F5400
G1 X185.958 Y173.321 E.29616
G1 X185.958 Y173.996 F36000
G1 F5400
G1 X190.976 Y179.014 E.27604
G1 X190.301 Y179.014 F36000
G1 F5400
G1 X185.958 Y174.671 E.2389
G1 X185.958 Y175.346 F36000
G1 F5400
G1 X189.626 Y179.014 E.20176
G1 X188.951 Y179.014 F36000
G1 F5400
G1 X185.958 Y176.022 E.16462
G1 X185.958 Y176.697 F36000
G1 F5400
G1 X188.276 Y179.014 E.12748
G1 X187.6 Y179.014 F36000
G1 F5400
G1 X185.958 Y177.372 E.09034
G1 X185.958 Y178.047 F36000
G1 F5400
G1 X186.925 Y179.014 E.05319
G1 E-.04419 F1800
;WIPE_START
G1 F5400
G1 X185.958 Y178.047 E-.45581
;WIPE_END
G1 Z.6 F36000
G1 X171.786 Y170.986 Z.6
G1 Z.2
G1 E.5 F1800
;WIDTH:0.505457
G1 F5400
G1 X172.722 Y171.922 E.04987
G1 X172.722 Y172.576 F36000
G1 F5400
G1 X171.132 Y170.986 E.08473
G1 X170.478 Y170.986 F36000
G1 F5400
G1 X172.722 Y173.23 E.1196
G1 X172.722 Y173.884 F36000
G1 F5400
G1 X169.824 Y170.986 E.15447
G1 X169.17 Y170.986 F36000
G1 F5400
G1 X172.722 Y174.538 E.18934
G1 X172.722 Y175.192 F36000
G1 F5400
G1 X168.515 Y170.986 E.2242
G1 X167.861 Y170.986 F36000
G1 F5400
G1 X172.722 Y175.846 E.25907
G1 X172.722 Y176.501 F36000
G1 F5400
G1 X167.758 Y171.537 E.26456
G1 X167.758 Y172.191 F36000
G1 F5400
G1 X172.722 Y177.155 E.26456
G1 X172.722 Y177.809 F36000
G1 F5400
G1 X167.758 Y172.845 E.26456
G1 X167.758 Y173.5 F36000
G1 F5400
G1 X172.722 Y178.463 E.26456
G1 X172.619 Y179.014 F36000
G1 F5400
G1 X167.758 Y174.154 E.25906
G1 X167.758 Y174.808 F36000
G1 F5400
G1 X171.964 Y179.014 E.2242
G1 X171.31 Y179.014 F36000
G1 F5400
G1 X167.758 Y175.462 E.18933
G1 X167.758 Y176.116 F36000
G1 F5400
G1 X170.656 Y179.014 E.15446
G1 X170.002 Y179.014 F36000
G1 F5400
G1 X167.758 Y176.77 E.1196
G1 X167.758 Y177.424 F36000
G1 F5400
G1 X169.348 Y179.014 E.08473
G1 X168.694 Y179.014 F36000
G1 F5400
G1 X167.758 Y178.078 E.04986
G1 E-.05903 F1800
;WIPE_START
G1 F5400
G1 X168.694 Y179.014 E-.44097
;WIPE_END
G1 Z.6 F36000
G1 X167.393 Y175 Z.6
G1 Z.2
G1 E.5 F1800
;TYPE:Gap infill
;WIDTH:0.380164
G1 X158.293 Y175 E.25008
;WIPE_START
G1 X160.293 Y175 E-.5
;WIPE_END
G1 Z.6 F36000
G1 X175.35 Y178.478 Z.6
G1 Z.2
G1 E.5 F1800
;TYPE:Outer wall
;WIDTH:0.5
G1 X183.33 Y178.478 E.29722
G1 X183.33 Y182.62 E.15428
G1 X192.85 Y182.62 E.35458
G1 X192.85 Y189.15 E.24322
G1 X157.15 Y189.15 E1.32969
G1 X157.15 Y178.478 E.3975
G1 X165.13 Y178.478 E.29722
G1 X165.13 Y182.62 E.15428
G1 X175.35 Y182.62 E.38066
G1 X175.35 Y178.498 E.15354
G1 X175.807 Y178.935 F36000
M73 P10 R11
;TYPE:Inner wall
G1 F1800
G1 X182.873 Y178.935 E.26318
G1 X182.873 Y183.077 E.15428
G1 X192.393 Y183.077 E.35458
G1 X192.393 Y188.693 E.20917
G1 X157.607 Y188.693 E1.29564
G1 X157.607 Y178.935 E.36345
G1 X164.673 Y178.935 E.26318
G1 X164.673 Y183.077 E.15428
G1 X175.807 Y183.077 E.41471
G1 X175.807 Y178.955 E.15354
G1 X176.264 Y179.392 F36000
G1 F1800
G1 X182.416 Y179.392 E.22913
G1 X182.416 Y183.534 E.15428
G1 X191.936 Y183.534 E.35458
G1 X191.936 Y188.236 E.17512
G1 X158.064 Y188.236 E1.26159
G1 X158.064 Y179.392 E.3294
G1 X164.216 Y179.392 E.22913
G1 X164.216 Y183.534 E.15428
G1 X176.264 Y183.534 E.44875
G1 X176.264 Y179.412 E.15354
G1 X176.721 Y179.849 F36000
G1 F1800
G1 X181.959 Y179.849 E.19508
G1 X181.959 Y183.991 E.15428
G1 X191.479 Y183.991 E.35458
G1 X191.479 Y187.779 E.14107
G1 X158.521 Y187.779 E1.22754
G1 X158.521 Y179.849 E.29535
M73 P11 R11
G1 X163.759 Y179.849 E.19508
G1 X163.759 Y183.991 E.15428
G1 X176.721 Y183.991 E.4828
G1 X176.721 Y179.869 E.15354
;WIPE_START
G1 X178.721 Y179.861 E-.5
;WIPE_END
G1 Z.6 F36000
G1 X190.415 Y184.128 Z.6
G1 Z.2
G1 E.5 F1800
;TYPE:Bottom surface
;WIDTH:0.501125
G1 F5400
G1 X191.342 Y185.055 E.04892
G1 X191.342 Y185.703 F36000
G1 F5400
G1 X189.767 Y184.128 E.08313
G1 X189.119 Y184.128 F36000
G1 F5400
G1 X191.342 Y186.351 E.11735
G1 X191.342 Y186.999 F36000
G1 F5400
G1 X188.471 Y184.128 E.15157
G1 X187.823 Y184.128 F36000
G1 F5400
G1 X191.337 Y187.642 E.18552
G1 X190.689 Y187.642 F36000
G1 F5400
G1 X187.175 Y184.128 E.18552
G1 X186.527 Y184.128 F36000
G1 F5400
G1 X190.041 Y187.642 E.18552
G1 X189.393 Y187.642 F36000
G1 F5400
G1 X185.879 Y184.128 E.18552
G1 X185.231 Y184.128 F36000
G1 F5400
G1 X188.745 Y187.642 E.18552
G1 X188.097 Y187.642 F36000
G1 F5400
G1 X184.583 Y184.128 E.18552
